X:0615
T:Oh dear what can the matter be.
S:Aird's Airs v4 (NLS Glen.16b)
N:opening rest added by me
M:6/8
L:1/8
Q:3/8=60 "Slow"
I: :: :|
Z:Jack Campin * www.campin.me.uk * 2009
K:G
z|d3  d3 |dBg dBG|c3  c3 |cAB cBA|d3  d3 |dBg dBG|EGc BcA|G3 z2:|
d|dBc dBc|dBg dBG|cAB cAB|cAB cBA|dBc dBc|dBg dBG|EGc BcA|G3 z2:|

